X: 5
T: Xiao qing ren
L: 1/4
M: 4/4
K: F
Acd2 [I:setbarnb 1]| 
GFD2 | 
cfdc | 
A4 | 
Acd2 | 
GFD2 | 
FGcF | 
D4 |]

@@@ Tune index: 8673
